X: 1
T: Limerick Lasses
R: jig
N: There's an unrelated reel with the same title
Z: 2009 John Chambers <jc:trillian.mit.edu>
S: handwritten MS of unknown origin in folder labelled "Philly tunes"
M: 6/8
L: 1/8
K: D
B \
| ABA D2d | dcA AGE | ABA A2A | Bcd cde \
| ABA D2d | dcA AGE | G2A Ade | fdc d2 :|
|: e \
| fdd edc | ABA B/c/de | f2f g2e | ABc def \
| g2a age | dcA AGE | G2A Ade | fdc d2 :|
